img/logo_bb.svg

<?xml version="1.0" encoding="UTF-8"?>
<svg width="38px" height="35px" viewBox="0 0 38 35" version="1.1" xmlns="http://www.w3.org/2000/svg" xmlns:xlink="http://www.w3.org/1999/xlink">
    <!-- Generator: Sketch 52.1 (67048) - http://www.bohemiancoding.com/sketch -->
    <title>logo_rebbix</title>
    <desc>Created with Sketch.</desc>
    <g id="Content-real" stroke="none" stroke-width="1" fill="none" fill-rule="evenodd">
        <g id="Menu-sticky" transform="translate(-146.000000, -25.000000)" fill="#85BC49" fill-rule="nonzero">
            <g id="logo_rebbix" transform="translate(146.000000, 25.000000)">
                <path d="M35.8490762,18.1357534 C34.3240818,16.3052055 32.1838144,15.1823288 29.8219912,14.974726 C29.5630298,14.9526712 29.3016707,14.9411644 29.043189,14.9411644 C27.1268751,14.9411644 25.3338077,15.5817123 23.8649215,16.6585616 L25.7318409,3.34082192 L25.7548597,3.08527397 C25.7965812,1.76054795 24.7664906,0.652534247 23.4539403,0.606986301 C22.1399514,0.563356164 21.0408044,1.60232877 20.9947669,2.92561644 L20.4691713,18.9335616 C18.6818586,16.385274 15.7493613,14.7450685 12.4509613,14.7450685 C12.1023227,14.7450685 11.7517657,14.764726 11.4045657,14.8016438 C8.93532155,15.0653425 6.70777459,16.24 5.07296133,18.1074658 L4.58237348,2.2759589 L4.57086409,2.09232877 C4.43083315,0.844315068 3.31346298,-0.0532191781 2.07764199,0.0891780822 C0.84038232,0.22869863 -0.0491977901,1.35445205 0.0903535912,2.6010274 C0.0903535912,2.6010274 2.63728619,25.5778082 2.65119337,25.7134932 C3.18350276,30.7769863 7.38682873,34.5943836 12.4293812,34.5943836 C12.7756221,34.5943836 13.1290564,34.5752055 13.4752972,34.5382877 C17.143916,34.1470548 20.1291646,31.7555479 21.4877525,28.5576027 C21.7174608,28.935411 21.9677901,29.3036301 22.2560044,29.6483562 C23.781958,31.4793836 25.9207867,32.6022603 28.2830895,32.8093836 C28.5415713,32.8323973 28.8043691,32.8439041 29.0609326,32.8439041 C33.6191315,32.8439041 37.500674,29.2528082 37.896789,24.6678082 C38.1015602,22.2863699 37.3735912,19.9663014 35.8490762,18.1357534 Z M13.1741348,31.6773973 C12.9257238,31.7037671 12.675874,31.7176712 12.4289017,31.7176712 C8.85043978,31.7176712 5.86615028,29.0068493 5.48921768,25.4109589 C5.29307845,23.5391781 5.82970387,21.7028767 7.00414144,20.2391096 C8.17857901,18.7743836 9.84792044,17.8615068 11.7028508,17.6620548 C11.9503028,17.6356849 12.2030298,17.6227397 12.4504818,17.6227397 C16.0294232,17.6227397 19.0117945,20.3330822 19.3901657,23.9280137 C19.7963514,27.7928767 17.0086807,31.2703425 13.1741348,31.6773973 Z M35.0539691,24.4194521 C34.7858961,27.530137 32.1526431,29.9676712 29.0599735,29.9676712 C28.886853,29.9676712 28.7070188,29.9604795 28.5300619,29.9441781 C26.927379,29.8027397 25.4743182,29.0413699 24.4389525,27.799589 C23.4031072,26.5573288 22.9110807,24.9828082 23.0496729,23.3656164 C23.3196641,20.2549315 25.9509989,17.8183562 29.043189,17.8183562 C29.2177481,17.8183562 29.399021,17.8260274 29.5745392,17.8408904 C31.1777017,17.9813699 32.6293238,18.7436986 33.6646895,19.9854795 C34.7010144,21.2267808 35.1916022,22.8032192 35.0539691,24.4194521 Z" id="Shape"></path>
            </g>
        </g>
    </g>
</svg>

<svg width="38" height="35" xmlns="http://www.w3.org/2000/svg"><path d="M35.85 18.136a8.798 8.798 0 0 0-6.807-3.195c-1.916 0-3.71.64-5.178 1.718L25.732 3.34l.023-.256A2.396 2.396 0 0 0 23.454.607a2.392 2.392 0 0 0-2.46 2.319l-.525 16.008c-1.787-2.549-4.72-4.189-8.018-4.189a9.746 9.746 0 0 0-7.378 3.362l-.49-15.831-.012-.184A2.258 2.258 0 0 0 2.078.09 2.267 2.267 0 0 0 .09 2.601l2.561 23.112c.533 5.064 4.736 8.881 9.778 8.881.347 0 .7-.019 1.046-.056 3.669-.39 6.654-2.782 8.013-5.98a8.795 8.795 0 0 0 7.573 4.286c4.558 0 8.44-3.591 8.836-8.176a8.947 8.947 0 0 0-2.048-6.532zM13.173 31.677c-.248.027-.498.04-.745.04-3.579 0-6.563-2.71-6.94-6.306a7.038 7.038 0 0 1 1.515-5.172 6.933 6.933 0 0 1 5.446-2.616c3.58 0 6.562 2.71 6.94 6.305.406 3.865-2.381 7.342-6.216 7.75zm21.88-7.258c-.268 3.111-2.901 5.549-5.994 5.549a5.977 5.977 0 0 1-4.621-2.168 6.069 6.069 0 0 1-1.39-4.434c.27-3.111 2.902-5.548 5.994-5.548a5.97 5.97 0 0 1 4.622 2.167 6.07 6.07 0 0 1 1.389 4.434z" fill="#85BC49" fill-rule="nonzero"/></svg>
